!!!OTL: Der Odenwalder.
!!!OTL-incipit: ES WOHNT EIN BAUR IM ODENWALD
!!!ARE: Europa, Mitteleuropa, Deutschland, Franken
!!!SCT: Z1064
!!!TXL: @@DE
!!!YEM: Copyright 1995, estate of Helmut Schaffrath.
**kern	**text
*ICvox	*
*M2/4	*
*k[b-e-a-d-]	*
*A-:	*
!LO:TX:a:t=Aus Franken.	!
{8e-	Es
=1	=1
8a-	wohnt
8e-	ein
8c	Bau'r
8e-	im
=2	=2
8a-	O-
8e-	-den-
8c	-wald,
8e-	der
=3	=3
8a-	hat
8a-	ein
8b-	junges
8b-	.
=4	=4
8cc	Weib,
8r}	.
{4cc	da-
=5	=5
8cc	-ʒu
16cc	ei-
16cc	-ne
8cc	jun-
8ee-	-ge
=6	=6
4b-	Dienſtmagd,
8b-	.
8ee-	dran
=7	=7
8cc	hat
8cc	er
8b-	ſei-
8b-	-ne
=8	=8
4a-;	Freud'.
!LO:TX:a:t=Bauer! He! Holla! Hopsa! Bauer!	!
4r}	.
=9	=9
{4cc/	Juch-
8.cc/	-he,
16cc/	noch
=10	=10
8cc/	a-
8cc/	-ber-
8cc/	-mal!
8ee-/	Das
=11	=11
8dd-/	war
8dd-/	des
8b-/	Bauern
8b-/	.
=12	=12
4a-	Freud'.
8r}	.
==	==
!!!AGN: Romanze, Ballade
!!!ONB: ESAC (Essen Associative Code) Database: ZUCCAL
!!!AMT: simple duple
!!!AIN: vox
!!!EED: Helmut Schaffrath
!!!EEV: 1.0
!!!GTL: II. Gau- Leuschen.
!!!URL-scan: https://www.digitale-sammlungen.de/de/view/bsb11160573?page=142
!!!ENC: Anna Maria Matuszewska
!!!EEV: 2025/03/02
*-	*-
